X: 28695
T: My Caillin Veg Dhone
R: reel
M: 4/4
K: Eminor
E2|E2 G>A B3c|B>G E2 E3E|E2 A>B d3e|d>B G2 A3A|
B>G B2 d3e|d>B G2 A3B|c3A B3A|B>G E2 E4||

